digitransit-component/packages/digitransit-component-icon/src/assets/position.svg

<svg id="icon-icon_position" viewBox="0 0 1024 1024">
	<path class="path1" d="M512 57.786c121.322 0 235.383 47.244 321.173 133.034s133.034 199.851 133.034 321.173-47.244 235.383-133.034 321.173c-85.79 85.79-199.851 133.034-321.173 133.034s-235.383-47.244-321.173-133.034c-85.79-85.79-133.034-199.851-133.034-321.173s47.248-235.383 133.034-321.173c85.79-85.786 199.851-133.034 321.173-133.034zM512-0.014c-282.772 0-512.007 229.235-512.007 512.007s229.231 512.007 512.007 512.007 512.007-229.235 512.007-512.007c0-282.772-229.235-512.007-512.007-512.007v0z"></path>
	<path class="path2" d="M512 196.029c174.224 0 315.968 141.74 315.968 315.964s-141.74 315.968-315.968 315.968-315.968-141.744-315.968-315.968 141.744-315.964 315.968-315.964zM512 138.229c-206.426 0-373.768 167.342-373.768 373.764 0 206.426 167.342 373.768 373.768 373.768s373.768-167.342 373.768-373.768c0-206.426-167.342-373.764-373.768-373.764v0z"></path>
	<path class="path3" d="M512 375.516c75.256 0 136.48 61.225 136.48 136.48s-61.225 136.48-136.48 136.48-136.48-61.225-136.48-136.48 61.225-136.48 136.48-136.48zM512 281.591c-127.247 0-230.405 103.155-230.405 230.405s103.155 230.405 230.405 230.405 230.405-103.155 230.405-230.405c0-127.25-103.155-230.405-230.405-230.405v0z"></path>
</svg>

<svg viewBox="0 0 1024 1024">
 <path d="M512 57.786c121.322 0 235.383 47.244 321.173 133.034s133.034 199.851 133.034 321.173-47.244 235.383-133.034 321.173S633.322 966.2 512 966.2s-235.383-47.244-321.173-133.034S57.793 633.315 57.793 511.993 105.041 276.61 190.827 190.82C276.617 105.034 390.678 57.786 512 57.786m0-57.8C229.228-.014-.007 229.221-.007 511.993S229.224 1024 512 1024s512.007-229.235 512.007-512.007S794.772-.014 512-.014" class="path1"/>
 <path d="M512 196.029c174.224 0 315.968 141.74 315.968 315.964S686.228 827.961 512 827.961 196.032 686.217 196.032 511.993 337.776 196.029 512 196.029m0-57.8c-206.426 0-373.768 167.342-373.768 373.764 0 206.426 167.342 373.768 373.768 373.768s373.768-167.342 373.768-373.768S718.426 138.229 512 138.229" class="path2"/>
 <path d="M512 375.516c75.256 0 136.48 61.225 136.48 136.48S587.255 648.476 512 648.476s-136.48-61.225-136.48-136.48 61.225-136.48 136.48-136.48m0-93.925c-127.247 0-230.405 103.155-230.405 230.405S384.75 742.401 512 742.401s230.405-103.155 230.405-230.405S639.25 281.591 512 281.591" class="path3"/>
</svg>
